templates/main/source/images/documentation__pic.svg

<?xml version="1.0" encoding="utf-8"?>
<svg width="32px" height="32px" viewBox="0 0 32 32" version="1.1" xmlns:xlink="http://www.w3.org/1999/xlink" xmlns="http://www.w3.org/2000/svg">
  <desc>Created with Lunacy</desc>
  <g id="files">
    <path d="M19.71 0.290016L25.71 6.29002C25.8972 6.47877 26.0016 6.7342 26 7.00002L26 29C26 30.6569 24.6569 32 23 32L3 32C1.34313 32 0 30.6569 0 29L0 3.00002C0 1.34314 1.34313 1.59562e-05 3 1.59562e-05L19 1.59562e-05C19.2658 -0.00148404 19.5213 0.102828 19.71 0.290016ZM23 30C23.5523 30 24 29.5523 24 29L24 8.00002L20 8.00002C18.8954 8.00002 18 7.10458 18 6.00002L18 2.00002L3 2.00002C2.44769 2.00002 2 2.4477 2 3.00002L2 29C2 29.5523 2.44769 30 3 30L23 30Z" transform="translate(2.6666667 -3.4561988E-06)" id="Fill-1" fill="#8C0014" fill-rule="evenodd" stroke="none" />
    <path d="M0 2L10 2L10 0L0 0L0 2Z" transform="translate(6.666667 14)" id="Fill-4" fill="#A6A6A6" stroke="none" />
    <path d="M0 2L18 2L18 0L0 0L0 2Z" transform="translate(6.666667 19)" id="Fill-6" fill="#A6A6A6" stroke="none" />
    <path d="M0 2L10 2L10 0L0 0L0 2Z" transform="translate(6.666667 24)" id="Fill-7" fill="#A6A6A6" stroke="none" />
  </g>
</svg>

<svg width="32" height="32" viewBox="0 0 32 32" xmlns:xlink="http://www.w3.org/1999/xlink" xmlns="http://www.w3.org/2000/svg"><g id="files" stroke="none"><path d="M19.71.29l6 6A1 1 0 0126 7v22a3 3 0 01-3 3H3a3 3 0 01-3-3V3a3 3 0 013-3h16a1 1 0 01.71.29zM23 30a1 1 0 001-1V8h-4a2 2 0 01-2-2V2H3a1 1 0 00-1 1v26a1 1 0 001 1h20z" transform="translate(2.667)" id="Fill-1" fill="#8C0014" fill-rule="evenodd"/><path d="M0 2h10V0H0v2z" transform="translate(6.667 14)" id="Fill-4" fill="#A6A6A6"/><path d="M0 2h18V0H0v2z" transform="translate(6.667 19)" id="Fill-6" fill="#A6A6A6"/><path d="M0 2h10V0H0v2z" transform="translate(6.667 24)" id="Fill-7" fill="#A6A6A6"/></g></svg>
